SiteWeb-L.Corentin-240314/assets/action-fields/water.svg

<svg xmlns="http://www.w3.org/2000/svg" xmlns:cc="http://creativecommons.org/ns#" xmlns:dc="http://purl.org/dc/elements/1.1/" xmlns:rdf="http://www.w3.org/1999/02/22-rdf-syntax-ns#" xmlns:svg="http://www.w3.org/2000/svg" width="800px" height="800px" viewBox="0 0 120 120" id="svg4254" version="1.1"><defs id="defs4256"/><path d="M 112.61328,60.000002 A 52.613281,52.613281 0 0 1 59.999998,112.61328 52.613281,52.613281 0 0 1 7.3867161,60.000002 52.613281,52.613281 0 0 1 59.999998,7.3867209 52.613281,52.613281 0 0 1 112.61328,60.000002 Z" id="path4136" style="opacity:1;fill:#80deea;fill-opacity:1;stroke:none;stroke-width:6.9000001;stroke-linecap:round;stroke-linejoin:miter;stroke-miterlimit:4;stroke-dasharray:none;stroke-dashoffset:0;stroke-opacity:1"/><path d="m 43.394058,58.577046 c -2.800997,0.05366 -7.031236,1.260085 -14.40168,3.828573 -8.427676,2.936913 -15.616858,3.088015 -21.3824354,2.071762 A 52.613282,52.613282 0 0 0 60.000457,112.61336 52.613282,52.613282 0 0 0 110.72453,73.745471 c -1.8048,0.258888 -3.67751,0.750723 -5.61508,1.525754 C 83.668157,83.847742 74.734218,85.634392 59.367956,72.769613 48.803651,63.925074 49.55625,58.459009 43.394058,58.577046 Z" id="path4143" style="fill:#4fc3f7;fill-opacity:1;fill-rule:evenodd;stroke:none;stroke-width:1px;stroke-linecap:butt;stroke-linejoin:miter;stroke-opacity:1"/><path d="M 80.345073,58.577046 C 74.182883,58.459009 74.935482,63.925074 64.371176,72.769613 49.00491,85.634392 40.070976,83.847742 18.629674,75.271225 15.281121,73.931799 12.125096,73.430665 9.182162,73.536362 A 52.613282,52.613282 0 0 0 60.000457,112.61336 52.613282,52.613282 0 0 0 112.36645,64.938207 C 107.3318,65.306057 101.4303,64.735185 94.74546,62.405619 87.375012,59.837131 83.146073,58.630704 80.345073,58.577046 Z" id="path4138" style="fill:#03a9f4;fill-rule:evenodd;stroke:none;stroke-width:1px;stroke-linecap:butt;stroke-linejoin:miter;stroke-opacity:1"/></svg>

<?xml version="1.0" encoding="UTF-8"?><svg xmlns="http://www.w3.org/2000/svg" width="800" height="800" viewBox="0 0 120 120"><path d="M112.613 60A52.613 52.613 0 0 1 60 112.613 52.613 52.613 0 0 1 7.387 60 52.613 52.613 0 0 1 60 7.387 52.613 52.613 0 0 1 112.613 60" style="opacity:1;fill:#80deea;fill-opacity:1;stroke:none;stroke-width:6.9000001;stroke-linecap:round;stroke-linejoin:miter;stroke-miterlimit:4;stroke-dasharray:none;stroke-dashoffset:0;stroke-opacity:1"/><path d="M43.394 58.577c-2.8.054-7.031 1.26-14.402 3.829-8.427 2.937-15.616 3.088-21.382 2.071A52.613 52.613 0 0 0 60 112.613a52.61 52.61 0 0 0 50.725-38.868 24.4 24.4 0 0 0-5.616 1.526c-21.44 8.577-30.375 10.363-45.741-2.501-10.564-8.845-9.812-14.311-15.974-14.193" style="fill:#4fc3f7;fill-opacity:1;fill-rule:evenodd;stroke:none;stroke-width:1px;stroke-linecap:butt;stroke-linejoin:miter;stroke-opacity:1"/><path d="M80.345 58.577c-6.162-.118-5.41 5.348-15.974 14.193-15.366 12.864-24.3 11.078-45.741 2.501-3.349-1.34-6.505-1.84-9.448-1.735A52.61 52.61 0 0 0 60 112.613a52.613 52.613 0 0 0 52.366-47.675c-5.034.368-10.936-.203-17.62-2.532-7.371-2.569-11.6-3.775-14.4-3.829" style="fill:#03a9f4;fill-rule:evenodd;stroke:none;stroke-width:1px;stroke-linecap:butt;stroke-linejoin:miter;stroke-opacity:1"/></svg>
